X: 9489
T: Dark Girl Dressed In Blue
R: polka
M: 2/4
K: Dmajor
|:"D"FA Ad|"G"Bd "D"A>F|"G"GB "B7"AF/A/|"Em"BE "A7"G/F/E/D/|
"D"FA Ad|"G"Bd "D"A>F|"G"GB "A7"A/B/A/G/|1 "D"FD D>E:|2 "D" FD D2||
|:"D" FA A/B/d/e/|ff/d/ e>d|"G" Bd "B7"AF/A/|"Em"BE "A7"G/F/E/D/|
"D"FA A/B/d/e/|ff/d/ e>d|"G"Bd "A7"A/B/A/G/|1 "D"FD D>E:|2 "D"FD D2||

